X: 14045
T: Freak St Callback
R: jig
M: 6/8
K: Adorian
|:A2d ecA|AGE ~G3|A2 d ecA|g2e edB|
A2d ecA|AGE DEG|cBA BAG|~A3 DEG:|
|:c2A AGE|c2A AGE|BcB BAG|~A3 DEG|
c2A AGE|cde ged|cBA DEG|1 ~A3 GAB:|2 ~A3 ABG||

